icons/flood-line.svg

<svg viewBox="0 0 24 24" fill="currentColor" xmlns="http://www.w3.org/2000/svg"><path d="M16.0001 17.4723C17.0616 18.4223 18.4634 19 20 19H22V21H20C18.5428 21 17.1766 20.6104 15.9998 19.9296C14.8242 20.6101 13.4576 21 12 21C10.5428 21 9.17657 20.6104 7.99984 19.9296C6.8242 20.6101 5.45763 21 4 21H2V19H4C5.53713 19 6.93925 18.422 8.00013 17.4723C9.06163 18.4223 10.4634 19 12 19C13.5371 19 14.9393 18.422 16.0001 17.4723ZM12.5734 1.53204L12.6727 1.6115L23 11H20V17C19.2988 17 18.6258 16.8797 18.0003 16.6587L18 9.15698L12 3.70198L6 9.15598L6.00125 16.6582C5.4648 16.8479 4.89325 16.9635 4.29898 16.9927L4 17V11H1L11.3273 1.6115C11.677 1.29365 12.1956 1.26716 12.5734 1.53204Z"/></svg>

<svg xmlns="http://www.w3.org/2000/svg" viewBox="0 0 24 24">
    <g>
        <path fill="none" d="M0 0h24v24H0z"/>
        <path fill-rule="nonzero" d="M16 17.472A5.978 5.978 0 0 0 20 19h2v2h-2a7.963 7.963 0 0 1-4-1.07A7.96 7.96 0 0 1 12 21a7.963 7.963 0 0 1-4-1.07A7.96 7.96 0 0 1 4 21H2v-2h2c1.537 0 2.94-.578 4-1.528A5.978 5.978 0 0 0 12 19c1.537 0 2.94-.578 4-1.528zm-3.427-15.94l.1.08L23 11h-3v6a5.99 5.99 0 0 1-2-.341V9.157l-6-5.455-6 5.454.001 7.502a5.978 5.978 0 0 1-1.702.335L4 17v-6H1l10.327-9.388a1 1 0 0 1 1.246-.08z"/>
    </g>
</svg>
